X: 26935
T: Miss Betty Fitchet's Wedding
R: reel
M: 4/4
K: Gmajor
[K:C]|:G/^F/=F/|E4 EG^FA|G4 GEF^F|Gedc cBAG|c2B2 B4|
D4DFEG|F4FEDE|FcBA AG^FG|A2G2E4|
E4 EG^FA|G4 GEF^F|Gedc cBAG|c2B2 B4|
dddcB2A2|cccB A2G2|^F2G2e2d2|c2c2c4:|

